icon-themes/sifr_svg/cmd/sc_viewrowcolumnheaders.svg

<svg viewBox="0 0 16 16" xmlns="http://www.w3.org/2000/svg"><g fill="#555753"><path d="m2 2v12h5v-8h7v-4z" opacity=".35"/><path d="m0 0v16h16v-16zm2 2h3v2h-3zm5 0h3v2h-3zm4 0h3v2h-3zm-9 4h3v2h-3zm5 0h3v2h-3zm4 0h3v2h-3zm-9 3h3v2h-3zm5 0h3v2h-3zm4 0h3v2h-3zm-9 3h3v2h-3zm5 0h3v2h-3zm4 0h3v2h-3z"/></g></svg>

<svg xmlns="http://www.w3.org/2000/svg" viewBox="0 0 16 16">
  <path
     style="opacity:0.35;fill:#555753"
     d="M 2,2 V 14 H 7 V 6 h 7 V 2 Z"
     />
  <path
     style="fill:#555753"
     d="M 0,0 V 16 H 16 V 0 Z M 2,2 H 5 V 4 H 2 Z m 5,0 h 3 V 4 H 7 Z m 4,0 h 3 V 4 H 11 Z M 2,6 H 5 V 8 H 2 Z m 5,0 h 3 V 8 H 7 Z m 4,0 h 3 V 8 H 11 Z M 2,9 h 3 v 2 H 2 Z m 5,0 h 3 v 2 H 7 Z m 4,0 h 3 v 2 h -3 z m -9,3 h 3 v 2 H 2 Z m 5,0 h 3 v 2 H 7 Z m 4,0 h 3 v 2 h -3 z"
     />
</svg>
